!!!COM: Bach, Johann Sebastian
!!!OTL: 165. O Lamm Gottes, unschuldig
!!!ONM: No. 165
!!!OCL: Erk
!!!SCA: BWV 401
!!!YOE: Riemenschneider, Albert
!!!OPR: 371 Harmonized Chorales and 69 Chorale Melodies with Figured Bass
!!!OPT: Bach Chorale Harmonizations
**harm	**root	**kern	**kern	**kern	**kern
!	!	!bass	!tenor	!alto	!sprno
*Iorgan	*Iorgan	*Iorgan	*Iorgan	*Iorgan	*Iorgan
*>[A,A,B]	*>[A,A,B]	*>[A,A,B]	*>[A,A,B]	*>[A,A,B]	*>[A,A,B]
*>norep[A,B]	*>norep[A,B]	*>norep[A,B]	*>norep[A,B]	*>norep[A,B]	*>norep[A,B]
*>A	*>A	*>A	*>A	*>A	*>A
*k[b-e-a-d-]	*k[b-e-a-d-]	*k[b-e-a-d-]	*k[b-e-a-d-]	*k[b-e-a-d-]	*k[b-e-a-d-]
*A-:	*A-:	*A-:	*A-:	*A-:	*A-:
*met(c)	*met(c)	*met(c)	*met(c)	*met(c)	*met(c)
*M4/4	*M4/4	*M4/4	*M4/4	*M4/4	*M4/4
*MM60	*MM60	*MM60	*MM60	*MM60	*MM60
I	4FF	8AA-	8c	4e-	4a-
.	.	8BB-	8d-	.	.
=1	=1	=1	=1	=1	=1
I7b	4FF	4C	[4e-	16e-	4a-
.	.	.	.	16f	.
.	.	.	.	8g-	.
IV	4BB-	[4D-	8e-]	8g-	4a-
.	.	.	16d-	8f	.
.	.	.	16c	.	.
V7c	4CC	4D-]	4B-	8g	4ee-
.	.	.	.	8e-	.
Ib	4FF	8C	[4e-	8a-	4ee-
.	.	8BB-	.	8g	.
=2	=2	=2	=2	=2	=2
vi7b	4DD	4AA-	4e-]	4cc	2ff
V/V	4GG	4BB-	4d	8b-	.
.	.	.	.	8a-	.
V;	4CC;	4E-;	4B-;	4g;	4ee-;
iii	4AA	4C	4c	[4g	4ee-
=3	=3	=3	=3	=3	=3
vi	4DD	4F	4c	8g]	4a-
.	.	.	.	[8f	.
Vb	4CC	4G	4B-	8f]	4b-
.	.	.	.	8e-	.
I	4FF	8A-	4.A-	8e-	4cc
.	.	8G	.	16f	.
.	.	.	.	16g	.
IVb	4BB-	8F	.	[4a-	4dd-
.	.	8D-	8f	.	.
=4	=4	=4	=4	=4	=4
Ic	4FF	4E-	4e-	8a-]	4cc
.	.	.	.	16g	.
.	.	.	.	16f	.
V	4CC	4EE-	8.e-	4g	8b-
.	.	.	.	.	8a-
.	.	.	16d-	.	.
I;	4FF;	4AA-;	4c;	4e-;	4a-;
=:|!	=:|!	=:|!	=:|!	=:|!	=:|!
*>B	*>B	*>B	*>B	*>B	*>B
I	4FF	[4A-	4e-	4a-	4cc
=5	=5	=5	=5	=5	=5
I	4FF	8A-]	4e-	4a-	4cc
.	.	8G	.	.	.
vi	4DD	8F	4f	4a-	4cc
.	.	8E-	.	.	.
V7b/V	4GG	4D	4f	4a-	4b-
Vb/vi	4AA	4E	4c	4g	4cc
=6	=6	=6	=6	=6	=6
!!linebreak: 2
vi	8DD	8F	8c	8f	8a-
Vb	8CC	8G	8B-	[8e-	8g
vi7b	8DD	8A-	8c	8e-]	4f
V/V	8GG	8B-	16B-	8d	.
.	.	.	16A-	.	.
V;	4CC;	4E-;	4G;	4B-;	4e-;
V7b/IV	4FF	4C	4A-	4g-	4ee-
=7	=7	=7	=7	=7	=7
IV	8BB-	4D-	8A-	8f	4ff
(vii7c)	8EE	.	8B-	8g	.
I	4FF	[4A-	8c	8a-	4ee-
.	.	.	8d-	16b-	.
.	.	.	.	16cc	.
Vb	4CC	8A-]	[4e-	4b-	4ee-
.	.	8G	.	.	.
I	8FF	4A-	8e-]	4a-	8cc
IVc	8BB-	.	8f	.	8dd-
=8	=8	=8	=8	=8	=8
V7/IV	8FF	8A-	4g-	4.cc	4ee-
viioD7/ii	8FF#	8A	.	.	.
v/VI	4AA	8B-	4f	.	4dd-
.	.	8BB-	.	[8b-	.
VI;	4DD;	4F;	4f;	8b-]	4cc;
.	.	.	.	8a;	.
iib	8GG	8D-	8f	4b-	4ff
V7b/V	8GG	8D	8a-	.	.
=9	=9	=9	=9	=9	=9
V	4CC	4E-	[4g	4b-	8ee-
.	.	.	.	.	8dd-
vi	4DD	4F	8g]	4a-	4cc
.	.	.	[8f	.	.
Vb	4CC	4G	8f]	[4b-	4b-
.	.	.	8e-	.	.
I	4FF	4A-	4e-	8b-]	4cc
.	.	.	.	16a-	.
.	.	.	.	16g	.
=10	=10	=10	=10	=10	=10
Ib	4FF	8C	8e-	4a-	4ee-
.	.	16D-	8c	.	.
.	.	16E-	.	.	.
vi	4DD	8F	8A-	[4a-	4cc
.	.	8E-	8c	.	.
ii7b	4GG	4D-	4f	4a-]	2b-
V	4CC	4E-	8e-	4g	.
.	.	.	8d-	.	.
=11	=11	=11	=11	=11	=11
I;	2.FF;	2.AA-;	2.c;	2.e-;	2.a-;
==	==	==	==	==	==
*-	*-	*-	*-	*-	*-
!!!CDT: 1685/3//-1750/7/28
!!!OCY: Deutschland
!!!AGN: chorale
!!!AST: Baroque
!!!AIN: vox
!!!YOY: 1941
!!!PPP: New York; London
!!!PPR: G. Schirmer
!!!ENC: David Huron
!!!EED: David Huron
!!!YEN: United States of America
!!!YER: 1992
!!!YEC: Copyright 1992 David Huron
!!!YEM: Rights to all derivative electronic formats reserved.
!!!YER: March 20, 1996
!!!AMT: simple quadruple
!!!EEV: 1.1
!!chor2scor: -l 2 -s 0.6 -o %b.pmx
